X: 19063
T: Lord Duplin's Jig
C: Bowie
B: RSCDS 19-6(II)
Z: 1997 by John Chambers <jc:trillian.mit.edu>
M: 6/8
L: 1/8
%--------------------
K: D
A/B/ \
| "D"d2A FDF | "D"ABA FDF | "D"d2A "(Bm)"BAF | "Em"E2E "A7"EFA \
| "D"d2A FDF | "D"ABA FGA | "G"BGB "A7"AFA | "D"D2D D2 :|
A \
| "D"d2d "A7"ABc | "D"d2d fed | "D"d2d "(A)"cBA | "E7"B2e "A7"e2f \
| "D"d2d "A7"ABc | "D"d2d "A"cBA | "G"B2G "A7"AFA | "D"D2D D2 |]
A \
| "D"d2d "A7"ABc | "D"d2d fed | "D"d2d "Bm"BAF | "Em"E2e "A7"e2f \
| "D"d2A "G"B2G | "A7"BAG "D"FGA | "G"BGB "A7"AFA | "D"D2D D2 |]
%%center Book19/19062-Lord_Duplins_Jig-2.abc

%%sep 1 1 500
%%sep 1 1 500

